images/indikatorenset/4852.svg

<?xml version="1.0" standalone="no"?>
<!DOCTYPE svg PUBLIC "-//W3C//DTD SVG 1.1//EN" "http://www.w3.org/Graphics/SVG/1.1/DTD/svg11.dtd">
<svg xmlns:xlink="http://www.w3.org/1999/xlink" version="1.1" class="highcharts-root" style="font-family:arial;font-size:12px;" xmlns="http://www.w3.org/2000/svg" viewBox="0 0 485 415">
  <desc>
    Created with Highstock 5.0.14
  </desc>
  <defs>
    <clipPath id="highcharts-iaewppw-6">
      <rect x="0" y="0" width="296" height="295" fill="none"/>
    </clipPath>
    <clipPath id="highcharts-iaewppw-7">
      <rect x="0" y="0" width="296" height="295" fill="none"/>
    </clipPath>
  </defs>
  <rect fill="#fbfbfb" class="highcharts-background" x="0" y="0" width="485" height="415" rx="0" ry="0"/>
  <rect fill="none" class="highcharts-plot-background" x="53" y="55" width="296" height="295"/>
  <g class="highcharts-pane-group"/>
  <g class="highcharts-grid highcharts-xaxis-grid ">
    <path fill="none" class="highcharts-grid-line" d="M 111.5 55 L 111.5 350" opacity="1"/>
    <path fill="none" class="highcharts-grid-line" d="M 170.5 55 L 170.5 350" opacity="1"/>
    <path fill="none" class="highcharts-grid-line" d="M 230.5 55 L 230.5 350" opacity="1"/>
    <path fill="none" class="highcharts-grid-line" d="M 289.5 55 L 289.5 350" opacity="1"/>
    <path fill="none" class="highcharts-grid-line" d="M 348.5 55 L 348.5 350" opacity="1"/>
    <path fill="none" class="highcharts-grid-line" d="M 52.5 55 L 52.5 350" opacity="1"/>
  </g>
  <g class="highcharts-grid highcharts-yaxis-grid ">
    <path fill="none" stroke="#e6e6e6" stroke-width="1" class="highcharts-grid-line" d="M 53 350.5 L 349 350.5" opacity="1"/>
    <path fill="none" stroke="#e6e6e6" stroke-width="1" class="highcharts-grid-line" d="M 53 321.5 L 349 321.5" opacity="1"/>
    <path fill="none" stroke="#e6e6e6" stroke-width="1" class="highcharts-grid-line" d="M 53 291.5 L 349 291.5" opacity="1"/>
    <path fill="none" stroke="#e6e6e6" stroke-width="1" class="highcharts-grid-line" d="M 53 262.5 L 349 262.5" opacity="1"/>
    <path fill="none" stroke="#e6e6e6" stroke-width="1" class="highcharts-grid-line" d="M 53 232.5 L 349 232.5" opacity="1"/>
    <path fill="none" stroke="#e6e6e6" stroke-width="1" class="highcharts-grid-line" d="M 53 203.5 L 349 203.5" opacity="1"/>
    <path fill="none" stroke="#e6e6e6" stroke-width="1" class="highcharts-grid-line" d="M 53 173.5 L 349 173.5" opacity="1"/>
    <path fill="none" stroke="#e6e6e6" stroke-width="1" class="highcharts-grid-line" d="M 53 144.5 L 349 144.5" opacity="1"/>
    <path fill="none" stroke="#e6e6e6" stroke-width="1" class="highcharts-grid-line" d="M 53 114.5 L 349 114.5" opacity="1"/>
    <path fill="none" stroke="#e6e6e6" stroke-width="1" class="highcharts-grid-line" d="M 53 85.5 L 349 85.5" opacity="1"/>
    <path fill="none" stroke="#e6e6e6" stroke-width="1" class="highcharts-grid-line" d="M 53 54.5 L 349 54.5" opacity="1"/>
  </g>
  <rect fill="none" class="highcharts-plot-border" x="53" y="55" width="296" height="295"/>
  <g class="highcharts-axis highcharts-xaxis ">
    <path fill="none" class="highcharts-tick" stroke="#FFFFFF" stroke-width="1" d="M 111.5 350 L 111.5 360" opacity="1"/>
    <path fill="none" class="highcharts-tick" stroke="#FFFFFF" stroke-width="1" d="M 170.5 350 L 170.5 360" opacity="1"/>
    <path fill="none" class="highcharts-tick" stroke="#FFFFFF" stroke-width="1" d="M 230.5 350 L 230.5 360" opacity="1"/>
    <path fill="none" class="highcharts-tick" stroke="#FFFFFF" stroke-width="1" d="M 289.5 350 L 289.5 360" opacity="1"/>
    <path fill="none" class="highcharts-tick" stroke="#FFFFFF" stroke-width="1" d="M 348.5 350 L 348.5 360" opacity="1"/>
    <path fill="none" class="highcharts-tick" stroke="#FFFFFF" stroke-width="1" d="M 52.5 350 L 52.5 360" opacity="1"/>
    <path fill="none" class="highcharts-axis-line" stroke="#ccd6eb" stroke-width="1" d="M 53 350.5 L 349 350.5"/>
  </g>
  <g class="highcharts-axis highcharts-yaxis ">
    <path fill="none" class="highcharts-axis-line" d="M 53 55 L 53 350"/>
  </g>
  <g class="highcharts-series-group">
    <g class="highcharts-series highcharts-series-0 highcharts-column-series highcharts-color-undefined " transform="translate(53,55) scale(1 1)" clip-path="url(#highcharts-iaewppw-7)">
      <rect x="14.5" y="132.5" width="29" height="163" fill="#256370" stroke="#ffffff" stroke-width="1" class="highcharts-point"/>
      <rect x="74.5" y="130.5" width="29" height="165" fill="#256370" stroke="#ffffff" stroke-width="1" class="highcharts-point"/>
      <rect x="133.5" y="147.5" width="29" height="148" fill="#256370" stroke="#ffffff" stroke-width="1" class="highcharts-point"/>
      <rect x="192.5" y="153.5" width="29" height="142" fill="#256370" stroke="#ffffff" stroke-width="1" class="highcharts-point"/>
      <rect x="251.5" y="171.5" width="29" height="124" fill="#256370" stroke="#ffffff" stroke-width="1" class="highcharts-point"/>
    </g>
    <g class="highcharts-markers highcharts-series-0 highcharts-column-series highcharts-color-undefined " transform="translate(53,55) scale(1 1)" clip-path="none"/>
    <g class="highcharts-series highcharts-series-1 highcharts-column-series highcharts-color-undefined " transform="translate(53,55) scale(1 1)" clip-path="url(#highcharts-iaewppw-7)">
      <rect x="14.5" y="18.5" width="29" height="114" fill="#71A3B5" stroke="#ffffff" stroke-width="1" class="highcharts-point"/>
      <rect x="74.5" y="16.5" width="29" height="114" fill="#71A3B5" stroke="#ffffff" stroke-width="1" class="highcharts-point"/>
      <rect x="133.5" y="17.5" width="29" height="130" fill="#71A3B5" stroke="#ffffff" stroke-width="1" class="highcharts-point"/>
      <rect x="192.5" y="21.5" width="29" height="132" fill="#71A3B5" stroke="#ffffff" stroke-width="1" class="highcharts-point"/>
      <rect x="251.5" y="26.5" width="29" height="145" fill="#71A3B5" stroke="#ffffff" stroke-width="1" class="highcharts-point"/>
    </g>
    <g class="highcharts-markers highcharts-series-1 highcharts-column-series highcharts-color-undefined " transform="translate(53,55) scale(1 1)" clip-path="none"/>
    <g class="highcharts-series highcharts-series-2 highcharts-column-series highcharts-color-undefined " transform="translate(53,55) scale(1 1)" clip-path="url(#highcharts-iaewppw-7)">
      <rect x="14.5" y="17.5" width="29" height="1" fill="#C8C8C8" stroke="#ffffff" stroke-width="1" class="highcharts-point"/>
      <rect x="74.5" y="16.5" width="29" height="0" fill="#C8C8C8" stroke="#ffffff" stroke-width="1" class="highcharts-point"/>
      <rect x="133.5" y="16.5" width="29" height="1" fill="#C8C8C8" stroke="#ffffff" stroke-width="1" class="highcharts-point"/>
      <rect x="192.5" y="21.5" width="29" height="0" fill="#C8C8C8" stroke="#ffffff" stroke-width="1" class="highcharts-point"/>
      <rect x="251.5" y="25.5" width="29" height="1" fill="#C8C8C8" stroke="#ffffff" stroke-width="1" class="highcharts-point"/>
    </g>
    <g class="highcharts-markers highcharts-series-2 highcharts-column-series highcharts-color-undefined " transform="translate(53,55) scale(1 1)" clip-path="none"/>
    <g class="highcharts-series highcharts-series-3 highcharts-column-series highcharts-color-undefined " transform="translate(53,55) scale(1 1)" clip-path="url(#highcharts-iaewppw-7)">
      <rect x="14.5" y="2.5" width="29" height="15" fill="#FFBB58" stroke="#ffffff" stroke-width="1" class="highcharts-point"/>
      <rect x="74.5" y="2.5" width="29" height="14" fill="#FFBB58" stroke="#ffffff" stroke-width="1" class="highcharts-point"/>
      <rect x="133.5" y="1.5" width="29" height="15" fill="#FFBB58" stroke="#ffffff" stroke-width="1" class="highcharts-point"/>
      <rect x="192.5" y="3.5" width="29" height="18" fill="#FFBB58" stroke="#ffffff" stroke-width="1" class="highcharts-point"/>
      <rect x="251.5" y="3.5" width="29" height="22" fill="#FFBB58" stroke="#ffffff" stroke-width="1" class="highcharts-point"/>
    </g>
    <g class="highcharts-markers highcharts-series-3 highcharts-column-series highcharts-color-undefined " transform="translate(53,55) scale(1 1)" clip-path="none"/>
    <g class="highcharts-series highcharts-series-4 highcharts-column-series highcharts-color-undefined " transform="translate(53,55) scale(1 1)" clip-path="url(#highcharts-iaewppw-7)">
      <rect x="14.5" y="-0.5" width="29" height="3" fill="#FF8028" stroke="#ffffff" stroke-width="1" class="highcharts-point"/>
      <rect x="74.5" y="-0.5" width="29" height="3" fill="#FF8028" stroke="#ffffff" stroke-width="1" class="highcharts-point"/>
      <rect x="133.5" y="-0.5" width="29" height="2" fill="#FF8028" stroke="#ffffff" stroke-width="1" class="highcharts-point"/>
      <rect x="192.5" y="-0.5" width="29" height="4" fill="#FF8028" stroke="#ffffff" stroke-width="1" class="highcharts-point"/>
      <rect x="251.5" y="-0.5" width="29" height="4" fill="#FF8028" stroke="#ffffff" stroke-width="1" class="highcharts-point"/>
    </g>
    <g class="highcharts-markers highcharts-series-4 highcharts-column-series highcharts-color-undefined " transform="translate(53,55) scale(1 1)" clip-path="none"/>
  </g>
  <text x="10" text-anchor="start" class="highcharts-title" style="color:#000000;font-size:14px;font-weight:bold;fill:#000000;" y="21">
    <tspan>Sicherheitsgefühl im Alltag</tspan>
  </text>
  <text x="10" text-anchor="start" class="highcharts-subtitle" style="color:#000000;font-size:12px;fill:#000000;" y="40">
    <tspan>«Wie sicher fühlen Sie sich ganz allgemein im Alltag?»</tspan>
  </text>
  <g class="highcharts-legend" transform="translate(361,137)">
    <rect fill="none" class="highcharts-legend-box" rx="0" ry="0" x="0" y="0" width="114" height="121" visibility="visible"/>
    <g>
      <g>
        <g class="highcharts-legend-item highcharts-column-series highcharts-color-undefined highcharts-series-4" transform="translate(8,3)">
          <text x="21" style="color:#333333;font-size:12px;font-weight:normal;cursor:pointer;fill:#333333;" text-anchor="start" y="15">
            <tspan>Ganz unsicher</tspan>
          </text>
          <rect x="2" y="4" width="12" height="12" fill="#FF8028" class="highcharts-point"/>
        </g>
        <g class="highcharts-legend-item highcharts-column-series highcharts-color-undefined highcharts-series-3" transform="translate(8,22)">
          <text x="21" y="15" style="color:#333333;font-size:12px;font-weight:normal;cursor:pointer;fill:#333333;" text-anchor="start">
            <tspan>Eher unsicher</tspan>
          </text>
          <rect x="2" y="4" width="12" height="12" fill="#FFBB58" class="highcharts-point"/>
        </g>
        <g class="highcharts-legend-item highcharts-column-series highcharts-color-undefined highcharts-series-2" transform="translate(8,41)">
          <text x="21" y="15" style="color:#333333;font-size:12px;font-weight:normal;cursor:pointer;fill:#333333;" text-anchor="start">
            <tspan>Weiss nicht /</tspan><tspan x="21" dy="15">keine Angabe</tspan>
          </text>
          <rect x="2" y="4" width="12" height="12" fill="#C8C8C8" class="highcharts-point"/>
        </g>
        <g class="highcharts-legend-item highcharts-column-series highcharts-color-undefined highcharts-series-1" transform="translate(8,75)">
          <text x="21" y="15" style="color:#333333;font-size:12px;font-weight:normal;cursor:pointer;fill:#333333;" text-anchor="start">
            <tspan>Eher sicher</tspan>
          </text>
          <rect x="2" y="4" width="12" height="12" fill="#71A3B5" class="highcharts-point"/>
        </g>
        <g class="highcharts-legend-item highcharts-column-series highcharts-color-undefined highcharts-series-0" transform="translate(8,94)">
          <text x="21" y="15" style="color:#333333;font-size:12px;font-weight:normal;cursor:pointer;fill:#333333;" text-anchor="start">
            <tspan>Sehr sicher</tspan>
          </text>
          <rect x="2" y="4" width="12" height="12" fill="#256370" class="highcharts-point"/>
        </g>
      </g>
    </g>
  </g>
  <g class="highcharts-axis-labels highcharts-xaxis-labels ">
    <text x="82.6" style="color:#000000;cursor:default;font-size:11px;fill:#000000;" text-anchor="middle" transform="translate(0,0)" y="369" opacity="1">
      <tspan>2003</tspan><tspan x="82.6" dy="14">(N=1497)</tspan>
    </text>
    <text x="141.8" style="color:#000000;cursor:default;font-size:11px;fill:#000000;" text-anchor="middle" transform="translate(0,0)" y="369" opacity="1">
      <tspan>2005</tspan><tspan x="141.8" dy="14">(N=1510)</tspan>
    </text>
    <text x="201" style="color:#000000;cursor:default;font-size:11px;fill:#000000;" text-anchor="middle" transform="translate(0,0)" y="369" opacity="1">
      <tspan>2007</tspan><tspan x="201" dy="14">(N=1509)</tspan>
    </text>
    <text x="260.2" style="color:#000000;cursor:default;font-size:11px;fill:#000000;" text-anchor="middle" transform="translate(0,0)" y="369" opacity="1">
      <tspan>2011</tspan><tspan x="260.2" dy="14">(N=1516)</tspan>
    </text>
    <text x="319.40000000000003" style="color:#000000;cursor:default;font-size:11px;fill:#000000;" text-anchor="middle" transform="translate(0,0)" y="369" opacity="1">
      <tspan>2015</tspan><tspan x="319.40000000000003" dy="14">(N=1506)</tspan>
    </text>
  </g>
  <g class="highcharts-axis-labels highcharts-yaxis-labels ">
    <text x="38" style="color:#000000;cursor:default;font-size:11px;fill:#000000;" text-anchor="end" transform="translate(0,0)" y="355" opacity="1">
      <tspan>0%</tspan>
    </text>
    <text x="38" style="color:#000000;cursor:default;font-size:11px;fill:#000000;" text-anchor="end" transform="translate(0,0)" y="325" opacity="1">
      <tspan>10%</tspan>
    </text>
    <text x="38" style="color:#000000;cursor:default;font-size:11px;fill:#000000;" text-anchor="end" transform="translate(0,0)" y="296" opacity="1">
      <tspan>20%</tspan>
    </text>
    <text x="38" style="color:#000000;cursor:default;font-size:11px;fill:#000000;" text-anchor="end" transform="translate(0,0)" y="266" opacity="1">
      <tspan>30%</tspan>
    </text>
    <text x="38" style="color:#000000;cursor:default;font-size:11px;fill:#000000;" text-anchor="end" transform="translate(0,0)" y="237" opacity="1">
      <tspan>40%</tspan>
    </text>
    <text x="38" style="color:#000000;cursor:default;font-size:11px;fill:#000000;" text-anchor="end" transform="translate(0,0)" y="207" opacity="1">
      <tspan>50%</tspan>
    </text>
    <text x="38" style="color:#000000;cursor:default;font-size:11px;fill:#000000;" text-anchor="end" transform="translate(0,0)" y="178" opacity="1">
      <tspan>60%</tspan>
    </text>
    <text x="38" style="color:#000000;cursor:default;font-size:11px;fill:#000000;" text-anchor="end" transform="translate(0,0)" y="148" opacity="1">
      <tspan>70%</tspan>
    </text>
    <text x="38" style="color:#000000;cursor:default;font-size:11px;fill:#000000;" text-anchor="end" transform="translate(0,0)" y="119" opacity="1">
      <tspan>80%</tspan>
    </text>
    <text x="38" style="color:#000000;cursor:default;font-size:11px;fill:#000000;" text-anchor="end" transform="translate(0,0)" y="89" opacity="1">
      <tspan>90%</tspan>
    </text>
    <text x="38" style="color:#000000;cursor:default;font-size:11px;fill:#000000;" text-anchor="end" transform="translate(0,0)" y="60" opacity="1">
      <tspan>100%</tspan>
    </text>
  </g>
  <text x="10" class="highcharts-credits" text-anchor="start" style="cursor:default;color:#000000;font-size:10px;fill:#000000;" y="400">
    <tspan>Quelle: Statistisches Amt Basel-Stadt, kantonale Bevölkerungsbefragung: F9a</tspan>
  </text>
</svg>

<svg class="highcharts-root" xmlns="http://www.w3.org/2000/svg" viewBox="0 0 485 415" font-family="arial" font-size="12">
    <defs>
        <clipPath id="a">
            <path fill="none" d="M0 0h296v295H0z"/>
        </clipPath>
    </defs>
    <rect fill="#fbfbfb" class="highcharts-background" width="485" height="415" rx="0" ry="0"/>
    <path fill="none" class="highcharts-plot-background" d="M53 55h296v295H53z"/>
    <g class="highcharts-grid highcharts-xaxis-grid">
        <path fill="none" class="highcharts-grid-line" d="M111.5 55v295m59-295v295m60-295v295m59-295v295m59-295v295M52.5 55v295"/>
    </g>
    <g class="highcharts-grid highcharts-yaxis-grid">
        <path fill="none" stroke="#e6e6e6" class="highcharts-grid-line" d="M53 350.5h296m-296-29h296m-296-30h296m-296-29h296m-296-30h296m-296-29h296m-296-30h296m-296-29h296m-296-30h296m-296-29h296m-296-31h296"/>
    </g>
    <path fill="none" class="highcharts-plot-border" d="M53 55h296v295H53z"/>
    <g class="highcharts-axis highcharts-xaxis">
        <path fill="none" class="highcharts-tick" stroke="#FFF" d="M111.5 350v10m59-10v10m60-10v10m59-10v10m59-10v10m-296-10v10"/>
        <path fill="none" class="highcharts-axis-line" stroke="#ccd6eb" d="M53 350.5h296"/>
    </g>
    <g class="highcharts-axis highcharts-yaxis">
        <path fill="none" class="highcharts-axis-line" d="M53 55v295"/>
    </g>
    <g class="highcharts-series-group">
        <g class="highcharts-series highcharts-series-0 highcharts-column-series highcharts-color-undefined" transform="translate(53 55)" clip-path="url(#a)">
            <path fill="#256370" stroke="#fff" class="highcharts-point" d="M14.5 132.5h29v163h-29zm60-2h29v165h-29zm59 17h29v148h-29zm59 6h29v142h-29zm59 18h29v124h-29z"/>
        </g>
        <g class="highcharts-series highcharts-series-1 highcharts-column-series highcharts-color-undefined" transform="translate(53 55)" clip-path="url(#a)">
            <path fill="#71A3B5" stroke="#fff" class="highcharts-point" d="M14.5 18.5h29v114h-29zm60-2h29v114h-29zm59 1h29v130h-29zm59 4h29v132h-29zm59 5h29v145h-29z"/>
        </g>
        <g class="highcharts-series highcharts-series-2 highcharts-column-series highcharts-color-undefined" transform="translate(53 55)" clip-path="url(#a)">
            <path fill="#C8C8C8" stroke="#fff" class="highcharts-point" d="M14.5 17.5h29v1h-29zm119-1h29v1h-29zm118 9h29v1h-29z"/>
        </g>
        <g class="highcharts-series highcharts-series-3 highcharts-column-series highcharts-color-undefined" transform="translate(53 55)" clip-path="url(#a)">
            <path fill="#FFBB58" stroke="#fff" class="highcharts-point" d="M14.5 2.5h29v15h-29zm60 0h29v14h-29zm59-1h29v15h-29zm59 2h29v18h-29zm59 0h29v22h-29z"/>
        </g>
        <g class="highcharts-series highcharts-series-4 highcharts-column-series highcharts-color-undefined" transform="translate(53 55)" clip-path="url(#a)">
            <path fill="#FF8028" stroke="#fff" class="highcharts-point" d="M14.5-.5h29v3h-29zm60 0h29v3h-29zm59 0h29v2h-29zm59 0h29v4h-29zm59 0h29v4h-29z"/>
        </g>
    </g>
    <text x="10" class="highcharts-title" y="21" color="#000" font-size="14" font-weight="700">
        <tspan>Sicherheitsgefühl im Alltag</tspan>
    </text>
    <text x="10" class="highcharts-subtitle" y="40" color="#000">
        <tspan>«Wie sicher fühlen Sie sich ganz allgemein im Alltag?»</tspan>
    </text>
    <g class="highcharts-legend" transform="translate(361 137)">
        <rect fill="none" class="highcharts-legend-box" rx="0" ry="0" width="114" height="121"/>
        <g class="highcharts-legend-item highcharts-column-series highcharts-color-undefined highcharts-series-4">
            <text x="21" y="15" color="#333" font-weight="400" cursor="pointer" fill="#333" transform="translate(8 3)">
                <tspan>Ganz unsicher</tspan>
            </text>
            <path fill="#FF8028" class="highcharts-point" d="M10 7h12v12H10z"/>
        </g>
        <g class="highcharts-legend-item highcharts-column-series highcharts-color-undefined highcharts-series-3">
            <text x="21" y="15" color="#333" font-weight="400" cursor="pointer" fill="#333" transform="translate(8 22)">
                <tspan>Eher unsicher</tspan>
            </text>
            <path fill="#FFBB58" class="highcharts-point" d="M10 26h12v12H10z"/>
        </g>
        <g class="highcharts-legend-item highcharts-column-series highcharts-color-undefined highcharts-series-2">
            <text x="21" y="15" color="#333" font-weight="400" cursor="pointer" fill="#333" transform="translate(8 41)">
                <tspan>Weiss nicht /</tspan><tspan x="21" dy="15">keine Angabe</tspan>
            </text>
            <path fill="#C8C8C8" class="highcharts-point" d="M10 45h12v12H10z"/>
        </g>
        <g class="highcharts-legend-item highcharts-column-series highcharts-color-undefined highcharts-series-1">
            <text x="21" y="15" color="#333" font-weight="400" cursor="pointer" fill="#333" transform="translate(8 75)">
                <tspan>Eher sicher</tspan>
            </text>
            <path fill="#71A3B5" class="highcharts-point" d="M10 79h12v12H10z"/>
        </g>
        <g class="highcharts-legend-item highcharts-column-series highcharts-color-undefined highcharts-series-0">
            <text x="21" y="15" color="#333" font-weight="400" cursor="pointer" fill="#333" transform="translate(8 94)">
                <tspan>Sehr sicher</tspan>
            </text>
            <path fill="#256370" class="highcharts-point" d="M10 98h12v12H10z"/>
        </g>
    </g>
    <g class="highcharts-axis-labels highcharts-xaxis-labels" text-anchor="middle" color="#000" cursor="default" font-size="11">
        <text x="82.6" y="369">
            <tspan>2003</tspan><tspan x="82.6" dy="14">(N=1497)</tspan>
        </text>
        <text x="141.8" y="369">
            <tspan>2005</tspan><tspan x="141.8" dy="14">(N=1510)</tspan>
        </text>
        <text x="201" y="369">
            <tspan>2007</tspan><tspan x="201" dy="14">(N=1509)</tspan>
        </text>
        <text x="260.2" y="369">
            <tspan>2011</tspan><tspan x="260.2" dy="14">(N=1516)</tspan>
        </text>
        <text x="319.4" y="369">
            <tspan>2015</tspan><tspan x="319.4" dy="14">(N=1506)</tspan>
        </text>
    </g>
    <g class="highcharts-axis-labels highcharts-yaxis-labels" text-anchor="end" color="#000" cursor="default" font-size="11">
        <text x="38" y="355">
            <tspan>0%</tspan>
        </text>
        <text x="38" y="325">
            <tspan>10%</tspan>
        </text>
        <text x="38" y="296">
            <tspan>20%</tspan>
        </text>
        <text x="38" y="266">
            <tspan>30%</tspan>
        </text>
        <text x="38" y="237">
            <tspan>40%</tspan>
        </text>
        <text x="38" y="207">
            <tspan>50%</tspan>
        </text>
        <text x="38" y="178">
            <tspan>60%</tspan>
        </text>
        <text x="38" y="148">
            <tspan>70%</tspan>
        </text>
        <text x="38" y="119">
            <tspan>80%</tspan>
        </text>
        <text x="38" y="89">
            <tspan>90%</tspan>
        </text>
        <text x="38" y="60">
            <tspan>100%</tspan>
        </text>
    </g>
    <text x="10" class="highcharts-credits" y="400" cursor="default" color="#000" font-size="10">
        <tspan>Quelle: Statistisches Amt Basel-Stadt, kantonale Bevölkerungsbefragung: F9a</tspan>
    </text>
</svg>
